build/images/miscellaneous.svg

<?xml version="1.0" encoding="UTF-8"?>
<svg width="33px" height="32px" viewBox="0 0 33 32" version="1.1" xmlns="http://www.w3.org/2000/svg" xmlns:xlink="http://www.w3.org/1999/xlink">
    <!-- Generator: sketchtool 63.1 (101010) - https://sketch.com -->
    <title>D3659D3C-4B0D-4CB8-8A24-C3023FC61FE5</title>
    <desc>Created with sketchtool.</desc>
    <g id="Page-1" stroke="none" stroke-width="1" fill="none" fill-rule="evenodd">
        <g id="Kupa-shop-main-1" transform="translate(-360.000000, -163.000000)" fill="#333333" fill-rule="nonzero">
            <g id="header" transform="translate(0.000000, 20.000000)">
                <g id="miscellaneous" transform="translate(360.375000, 143.000000)">
                    <path d="M15.5954283,27.5274667 C15.6965854,27.6572368 15.8520212,27.7331236 16.0166667,27.7331236 C16.1813121,27.7331236 16.336748,27.6572368 16.437905,27.5274667 L27.6495717,13.1274667 C27.7747034,12.9667153 27.7972827,12.748814 27.7077656,12.5658667 C27.6978532,12.5486133 27.6867947,12.5320429 27.6746644,12.5162667 L27.6789356,12.5162667 L23.9417133,6.6496 C23.8411726,6.50018171 23.6712859,6.41231056 23.4911111,6.41653333 L23.4911111,6.4 L8.54222222,6.4 L8.54222222,6.41653333 C8.36255713,6.41171829 8.19277828,6.49852891 8.09162,6.64693333 L4.35439778,12.5136 L4.35866889,12.5136 C4.34653861,12.5293762 4.33548014,12.5459467 4.32556778,12.5632 C4.23605066,12.7461474 4.25862994,12.9640486 4.38376167,13.1248 L15.5954283,27.5274667 Z M16.9894122,7.46666667 L22.5183656,7.46666667 L19.7538889,11.8064 L16.9894122,7.46666667 Z M18.7811433,12.2666667 L13.25219,12.2666667 L16.0166667,7.92693333 L18.7811433,12.2666667 Z M12.2794444,11.8064 L9.51496778,7.46666667 L15.0439211,7.46666667 L12.2794444,11.8064 Z M5.89680278,13.3333333 L11.8699517,13.3333333 L15.0327094,25.0666667 L5.89680278,13.3333333 Z M17.0209117,25.0416 L18.7395,18.8266667 C18.8095808,18.5459925 18.6429047,18.2606769 18.3638093,18.1835606 C18.0847139,18.1064443 17.7949587,18.2656443 17.7106961,18.5424 L16.0241411,24.64 L12.9761694,13.3333333 L19.0625028,13.3333333 L18.4036839,15.8661333 C18.3475935,16.053304 18.3984428,16.256131 18.536222,16.3947991 C18.6740011,16.5334673 18.8766539,16.5857778 19.0644334,16.5311459 C19.2522129,16.4765139 19.3950587,16.3236852 19.4367589,16.1328 L20.166585,13.3333333 L26.1365306,13.3333333 L17.0209117,25.0416 Z M26.2555878,12.2666667 L20.7266344,12.2666667 L23.4911111,7.92693333 L26.2555878,12.2666667 Z M8.54222222,7.92693333 L11.3066989,12.2666667 L5.77774556,12.2666667 L8.54222222,7.92693333 Z" id="Shape"></path>
                    <path d="M0.533888889,16.5333333 L2.13555556,16.5333333 C2.43041425,16.5333333 2.66944444,16.2945518 2.66944444,16 C2.66944444,15.7054482 2.43041425,15.4666667 2.13555556,15.4666667 L0.533888889,15.4666667 C0.239030197,15.4666667 0,15.7054482 0,16 C0,16.2945518 0.239030197,16.5333333 0.533888889,16.5333333 Z" id="Shape"></path>
                    <path d="M29.8977778,16.5333333 L31.4994444,16.5333333 C31.7943031,16.5333333 32.0333333,16.2945518 32.0333333,16 C32.0333333,15.7054482 31.7943031,15.4666667 31.4994444,15.4666667 L29.8977778,15.4666667 C29.6029191,15.4666667 29.3638889,15.7054482 29.3638889,16 C29.3638889,16.2945518 29.6029191,16.5333333 29.8977778,16.5333333 Z" id="Shape"></path>
                    <path d="M16.5505556,31.4666667 L16.5505556,29.8666667 C16.5505556,29.5721148 16.3115253,29.3333333 16.0166667,29.3333333 C15.721808,29.3333333 15.4827778,29.5721148 15.4827778,29.8666667 L15.4827778,31.4666667 C15.4827778,31.7612185 15.721808,32 16.0166667,32 C16.3115253,32 16.5505556,31.7612185 16.5505556,31.4666667 Z" id="Shape"></path>
                    <path d="M16.0166667,2.66666667 C16.3115253,2.66666667 16.5505556,2.4278852 16.5505556,2.13333333 L16.5505556,0.533333333 C16.5505556,0.238781467 16.3115253,0 16.0166667,0 C15.721808,0 15.4827778,0.238781467 15.4827778,0.533333333 L15.4827778,2.13333333 C15.4827778,2.4278852 15.721808,2.66666667 16.0166667,2.66666667 Z" id="Shape"></path>
                    <path d="M5.82366,25.4282667 L4.69128167,26.56 C4.5470539,26.6926079 4.48716813,26.8935054 4.53528184,27.0833294 C4.58339555,27.2731533 4.73177048,27.4213739 4.92179216,27.4694375 C5.11181383,27.5175011 5.31292061,27.4576777 5.44566667,27.3136 L6.578045,26.1824 C6.78037405,25.9731313 6.77748048,25.6404881 6.57154149,25.4347634 C6.3656025,25.2290387 6.03261285,25.2261482 5.82312611,25.4282667 L5.82366,25.4282667 Z" id="Shape"></path>
                    <path d="M25.8322139,6.728 C25.9737984,6.72796981 26.1095731,6.67175968 26.2096733,6.57173333 L27.3420517,5.44 C27.4862795,5.30739208 27.5461652,5.10649457 27.4980515,4.91667062 C27.4499378,4.72684668 27.3015629,4.57862614 27.1115412,4.53056251 C26.9215195,4.48249886 26.7204127,4.54232231 26.5876667,4.6864 L25.4552883,5.8176 C25.3026453,5.97013029 25.2569903,6.19948619 25.3396064,6.39874912 C25.4222224,6.598012 25.6168453,6.72795397 25.8327478,6.728 L25.8322139,6.728 Z" id="Shape"></path>
                    <path d="M26.9645922,27.4698667 C27.1804947,27.4698206 27.3751176,27.3398787 27.4577336,27.1406158 C27.5403497,26.9413529 27.4946947,26.711997 27.3420517,26.5594667 L26.2096733,25.4282667 C26.0001866,25.2261482 25.6671969,25.2290387 25.461258,25.4347634 C25.255319,25.6404881 25.2524254,25.9731313 25.4547544,26.1824 L26.5876667,27.3136 C26.6876361,27.4134958 26.8231927,27.4696951 26.9645922,27.4698667 Z" id="Shape"></path>
                    <path d="M5.82366,6.57173333 C6.03314673,6.77385184 6.36613638,6.77096128 6.57207537,6.56523659 C6.77801436,6.35951189 6.78090794,6.02686875 6.57857889,5.8176 L5.44566667,4.6864 C5.31292061,4.54232231 5.11181383,4.48249886 4.92179216,4.53056251 C4.73177048,4.57862614 4.58339555,4.72684668 4.53528184,4.91667062 C4.48716813,5.10649457 4.5470539,5.30739208 4.69128167,5.44 L5.82366,6.57173333 Z" id="Shape"></path>
                </g>
            </g>
        </g>
    </g>
</svg>

<svg width="33" height="32" xmlns="http://www.w3.org/2000/svg"><g id="Page-1" stroke="none" stroke-width="1" fill="none" fill-rule="evenodd"><g id="Kupa-shop-main-1" transform="translate(-360 -163)" fill="#333" fill-rule="nonzero"><g id="header" transform="translate(0 20)"><g id="miscellaneous" transform="translate(360.375 143)"><path d="M15.595 27.527a.534.534 0 00.843 0l11.212-14.4a.533.533 0 00.058-.561.445.445 0 00-.033-.05h.004L23.942 6.65a.528.528 0 00-.45-.233V6.4H8.541v.017a.528.528 0 00-.45.23l-3.738 5.867h.005a.445.445 0 00-.033.05.53.53 0 00.058.56l11.211 14.403zm1.394-20.06h5.53l-2.765 4.34-2.765-4.34zm1.792 4.8h-5.529l2.765-4.34 2.764 4.34zm-6.502-.46l-2.764-4.34h5.529l-2.765 4.34zm-6.382 1.526h5.973l3.163 11.734-9.136-11.734zM17.02 25.042l1.718-6.215a.533.533 0 00-1.028-.285l-1.687 6.098-3.048-11.307h6.087l-.66 2.533a.533.533 0 101.034.267l.73-2.8h5.97L17.02 25.042zm9.235-12.775h-5.53l2.765-4.34 2.765 4.34zM8.542 7.927l2.765 4.34h-5.53l2.765-4.34zM.534 16.533h1.602a.534.534 0 100-1.066H.534a.534.534 0 100 1.066zm29.364 0h1.601a.534.534 0 100-1.066h-1.601a.534.534 0 100 1.066zM16.55 31.467v-1.6a.534.534 0 00-1.067 0v1.6a.534.534 0 001.068 0zm-.533-28.8a.534.534 0 00.534-.534v-1.6a.534.534 0 00-1.068 0v1.6c0 .295.239.534.534.534zM5.824 25.428L4.69 26.56a.533.533 0 10.755.754l1.132-1.132a.533.533 0 00-.755-.754zm20.008-18.7a.534.534 0 00.378-.156l1.132-1.132a.533.533 0 10-.754-.754l-1.133 1.132a.533.533 0 00.378.91zm1.133 20.742a.534.534 0 00.377-.91l-1.132-1.132a.534.534 0 00-.755.754l1.133 1.132c.1.1.235.156.377.156zM5.824 6.572a.534.534 0 00.755-.754L5.446 4.686a.534.534 0 10-.755.754l1.133 1.132z" id="Shape"/></g></g></g></g></svg>
